!!!OTL@@DE: Fr&auml;ulein Kunigund
!!!ONB: Bairische Volksweise
!!!ODT: 1830
!!!OMD: Nicht zu rasch
!!!ONB: Das Gedicht theilweise schon in der ersten H&auml;lfte des 18. Jahrh. vorkommend.  Von Studenten umgeformt
!!!OCL: Erk, Ludwig
!!!GCO: Deutscher Liederschatz, Band 1
**kern	**kern	**kern
*staff3	*staff2	*staff1
*Ipiano	*Ipiano	*Ivox
*>[A,B,B]	*>[A,B,B]	*>[A,B,B]
*>norep[A,B,B]	*>norep[A,B,B]	*>norep[A,B,B]
*>A	*>A	*>A
=1-	=1-	=1-
*clefF4	*clefG2	*clefG2
*k[]	*k[]	*k[]
*C:	*C:	*C:
*met(C)	*met(C)	*met(C)
*M4/4	*M4/4	*M4/4
*MM100	*MM100	*MM100
8r	4e/ 4g/	4g/
8C/L	.	.
8BB/	4d/ 4f/	4f/
8GG/J	.	.
*	*^	*
4C/	8e/L	4c\	8e/L
.	8g/	.	8g/J
8E/L	8cc/	8c\L	8cc/L
8C/J	8e/J	8c\J	8e/J
*	*v	*v	*
=2	=2	=2
4GG/	4.e/ 4.g/	4g/
8AA/L	.	8g/
8BB/J	8d/ 8f/	8f/
4C/	4c/ 4e/	(4e/
4C/ 4E/	4c/	4c/)
=3	=3	=3
8r	4e/ 4g/	4g/
8C\L	.	.
8E\	8e/ 8g/L	8g/L
8G\J	8d/ 8f/J	8f/J
*	*^	*
4c\	8e/L	4e\	(8e/L
.	8g/	.	8g/J
4C/	8cc/	8e\L	8cc/)
.	8e/J	8c\J	8e/
*	*v	*v	*
=4	=4	=4
4GG/	4.e/ 4.g/	4g/
8AA/L	.	8g/
8BB/J	8d/ 8f/	8f/
4C/	4c/ 4e/	(4e/
4C/ 4E/	4c/	4c/)
=5	=5	=5
4C/	4c/	4c/
8E\L	8e/L	8e/L
8G\J	8g/J	8g/J
4C/	4c/	4c/
8E\L	8e/L	8e/L
8G\J	8g/J	8g/J
=6	=6	=6
4C/	2c/ 2f/ 2a/	2a/
8F\L	.	.
8A\J	.	.
4C/	4c/ 4e/ 4g/	4g/
4c\	4e/ 4g/ 4cc/	4r
=7	=7	=7
4G\	4d/ 4g/ 4b/	4b\
4G\	8d/ 8f/ 8a/L	8a/L
.	8b/J	8b/J
4A\	4c/ 4e/ 4cc/	4cc/
4AA\ 4A\	8c/ 8e/L	8e/L
.	8d/ 8f/J	8f/J
=8	=8	=8
4GG/ 4G/	4e/ 4g/	2g/
4G\ 4B\	(8g/ 8ee/L	.
.	8f/) 8dd/J	.
4C\ 4G\ 4c\	4e/ 4cc/	4c/
4r	4r	4r
=9!|:	=9!|:	=9!|:
*>B	*>B	*>B
4C/	4c/	4c/
8E\L	8e/L	8e/
8G\J	8g/J	8g/
4C/	4c/	4c/
8E\L	8e/L	8e/
8G\J	8g/J	8g/
=10	=10	=10
4F\	8f/ 8a/L	8a/L
.	8c/	8f/J
8FF/L	8a/ 8cc/	8cc\
8AA/J	8f/ 8a/J	8a/
4C/	4e/ 4g/	4g/
(8C\L	(8g/ 8ee/L	4r
8E\J)	8e/) 8cc/J	.
=11	=11	=11
4G\	4d/ 4g/ 4b/	4b\
4G#\	4d/ 4f/ 4b/	4b\
4A\	4c/ 4e/ 4cc/	4cc\
4AA\ 4A\	(8c/ 8e/L	8e/L
.	8d/) 8f/J	8f/J
=12	=12	=12
4GG/ 4G/	4e/ 4g/	(4g/
4G\ 4B\	(8g/ 8ee/L	8ee\L
.	8f/) 8dd/J	8dd\J)
4C\ 4G\ 4c\	4e/ 4cc/	4cc\
4r	4r	4r
==:|!	==:|!	==:|!
*-	*-	*-
!!!ENC: Craig Stuart Sapp
!!!END: 2004/06/27/
!!!EFL: 171/651
